mobile/apps/auth/assets/custom-icons/icons/via_rail.svg

<?xml version="1.0" encoding="UTF-8" standalone="no"?>
<!DOCTYPE svg PUBLIC "-//W3C//DTD SVG 1.1//EN" "http://www.w3.org/Graphics/SVG/1.1/DTD/svg11.dtd">
<svg viewBox="0 0 1593 591" version="1.1" xmlns="http://www.w3.org/2000/svg" xmlns:xlink="http://www.w3.org/1999/xlink"><path d="M859.503,588.6l337.678,-588.6l391.881,0l0,588.6l-235.447,0l0,-391.884l-233.887,391.884l-260.225,0Z" style="fill:#ffcb05;"/><path d="M734.034,0l-337.659,588.6l-391.882,0l0,-588.6l235.438,0l0,391.881l233.881,-391.881l260.222,0Z" style="fill:#ffcb05;"/><path d="M826.978,0l278.809,0l-342.322,588.6l-278.815,0l342.328,-588.6Z" style="fill:#ffcb05;"/></svg>

<svg xmlns="http://www.w3.org/2000/svg" viewBox="0 0 1593 591"><path d="M859.503 588.6 1197.181 0h391.881v588.6h-235.447V196.716L1119.728 588.6H859.503ZM734.034 0 396.375 588.6H4.493V0h235.438v391.881L473.812 0h260.222ZM826.978 0h278.809L763.465 588.6H484.65L826.978 0Z" style="fill:#ffcb05"/></svg>
